Dominus_Dark_Funeral/scalable/emblems/emblem-system.svg

<svg xmlns="http://www.w3.org/2000/svg" width="24" height="24"><path d="M18.66 1.84C16.98.75 14.67.2 11.8.2S6.62.75 4.94 1.84c-2.02 1.31-3.09 3.4-3.09 6.04 0 3.56 2.86 8.32 3.74 9.69 1 1.57 2.09 3 3.07 4.02 1.25 1.3 2.25 1.9 3.14 1.9.89 0 1.89-.6 3.14-1.9A26.82 26.82 0 0 0 18 17.57c.88-1.37 3.74-6.13 3.74-9.69 0-2.64-1.07-4.73-3.09-6.04z" fill="#483737"/><path d="M10.22 2.12v1.71a5.5 5.5 0 0 0-1.17.5L7.83 3.1 5.71 5.23l1.21 1.21a5.5 5.5 0 0 0-.48 1.18H4.72v3h1.71a5.5 5.5 0 0 0 .5 1.18L5.7 13l2.12 2.12 1.21-1.2a5.5 5.5 0 0 0 1.18.48v1.71h3v-1.7a5.5 5.5 0 0 0 1.18-.5l1.21 1.21 2.12-2.12-1.2-1.2a5.5 5.5 0 0 0 .48-1.19h1.71v-3h-1.7a5.5 5.5 0 0 0-.5-1.17l1.21-1.22-2.12-2.12-1.2 1.21a5.5 5.5 0 0 0-1.19-.48V2.12zm1.5 4.5a2.5 2.5 0 0 1 2.5 2.5 2.5 2.5 0 0 1-2.5 2.5 2.5 2.5 0 0 1-2.5-2.5 2.5 2.5 0 0 1 2.5-2.5z" fill="#fff"/></svg>

<?xml version="1.0" encoding="UTF-8" standalone="no"?>
<svg
   xmlns:dc="http://purl.org/dc/elements/1.1/"
   xmlns:cc="http://creativecommons.org/ns#"
   xmlns:rdf="http://www.w3.org/1999/02/22-rdf-syntax-ns#"
   xmlns:svg="http://www.w3.org/2000/svg"
   xmlns="http://www.w3.org/2000/svg"
   xmlns:sodipodi="http://sodipodi.sourceforge.net/DTD/sodipodi-0.dtd"
   xmlns:inkscape="http://www.inkscape.org/namespaces/inkscape"
   width="24"
   height="24"
   version="1.1"
   id="svg6"
   sodipodi:docname="emblem-system.svg"
   inkscape:version="0.92.4 (5da689c313, 2019-01-14)">
  <metadata
     id="metadata12">
    <rdf:RDF>
      <cc:Work
         rdf:about="">
        <dc:format>image/svg+xml</dc:format>
        <dc:type
           rdf:resource="http://purl.org/dc/dcmitype/StillImage" />
        <dc:title></dc:title>
      </cc:Work>
    </rdf:RDF>
  </metadata>
  <defs
     id="defs10" />
  <sodipodi:namedview
     pagecolor="#ffffff"
     bordercolor="#666666"
     borderopacity="1"
     objecttolerance="10"
     gridtolerance="10"
     guidetolerance="10"
     inkscape:pageopacity="0"
     inkscape:pageshadow="2"
     inkscape:window-width="1112"
     inkscape:window-height="480"
     id="namedview8"
     showgrid="false"
     inkscape:zoom="9.8333333"
     inkscape:cx="1.0677966"
     inkscape:cy="12"
     inkscape:window-x="0"
     inkscape:window-y="25"
     inkscape:window-maximized="0"
     inkscape:current-layer="svg6" />
  <path
     d="M 18.66,1.84 C 16.98,0.75 14.67,0.2 11.8,0.2 8.93,0.2 6.62,0.75 4.94,1.84 2.92,3.15 1.85,5.24 1.85,7.88 c 0,3.56 2.86,8.32 3.74,9.69 1,1.57 2.09,3 3.07,4.02 1.25,1.3 2.25,1.9 3.14,1.9 0.89,0 1.89,-0.6 3.14,-1.9 A 26.82,26.82 0 0 0 18,17.57 c 0.88,-1.37 3.74,-6.13 3.74,-9.69 0,-2.64 -1.07,-4.73 -3.09,-6.04 z"
     id="path2"
     inkscape:connector-curvature="0"
     style="fill:#483737" />
  <path
     d="M 10.22,2.12 V 3.83 A 5.5,5.5 0 0 0 9.05,4.33 L 7.83,3.1 5.71,5.23 6.92,6.44 A 5.5,5.5 0 0 0 6.44,7.62 H 4.72 v 3 h 1.71 a 5.5,5.5 0 0 0 0.5,1.18 L 5.7,13 l 2.12,2.12 1.21,-1.2 a 5.5,5.5 0 0 0 1.18,0.48 v 1.71 h 3 v -1.7 a 5.5,5.5 0 0 0 1.18,-0.5 L 15.6,15.12 17.72,13 16.52,11.8 A 5.5,5.5 0 0 0 17,10.61 h 1.71 v -3 h -1.7 A 5.5,5.5 0 0 0 16.51,6.44 L 17.72,5.22 15.6,3.1 14.4,4.31 A 5.5,5.5 0 0 0 13.21,3.83 V 2.12 Z m 1.5,4.5 a 2.5,2.5 0 0 1 2.5,2.5 2.5,2.5 0 0 1 -2.5,2.5 2.5,2.5 0 0 1 -2.5,-2.5 2.5,2.5 0 0 1 2.5,-2.5 z"
     id="path4"
     inkscape:connector-curvature="0"
     style="fill:#ffffff" />
</svg>
